X:1
T:Alas, alas! where is my love - Bateson
T:James Gibb editions
T:#
%%score 1 2 3 4
L:1/8
Q:1/4=108
M:4/4
K:C
V:1 treble nm="Soprano I"
V:2 treble nm="Soprano II"
V:3 treble nm="Alto" snm="A"
V:4 treble-8 nm="Tenor" snm="T"
V:1
!p!"^Alas, alas! where is my love""^Thomas Bateson\n (1575-1630)" c2 | B4 z2 A2 | ^G4 z2 G2 | %3
w: A-|las, a-|las! where|
 ^G2 G2 c3 =G | B2 A2 ^G2 G2 | z2!f! B2 B2 B2 |[M:4/4] c3 e e3 d | e4 e4 | z2!p! ^G4 A2 | %9
w: is my love, where|is my sweet- ing,|where is my|love, where is my|sweet- ing,|That hath|
 (BA)Bc B3 A | ^G4 z4 | z8 | z4 z2!f! e2 | e2 e2 d4 | e4 z2!p! c2 | B2 A4 ^G2 | A8 | z8 | z8 | %19
w: sto\- * len a- way my|heart?||God|send us meet-|ing! God|send us meet-|ing!|||
 e6 B2 | d6 A2 | c2 c2 B4 | A4 A4 | ^G4 z2 e2 | d3 c B2 B2 | z2 c2 A2 A2 | G2 G2 z2!f! e2 | %27
w: That, re-|new- ing|my la- ment,|my la-|ment with|friend- ly greet- ing,|with friend- ly|greet- ing, with|
 d2 c2 B2 B2 | z8 | z4 z2!p! A2- | A2 GF G2 E2 | F2 G2 A2 F2 | E4 E4 | z4 e4- | e2 dc d2 B2 | %35
w: friend- ly greet- ing,||She|* may re- lease my|smart, and all my|weep- ing,|she|* may re- lease my|
 c2 d2 e4- | e2 (Bc) (d4- | d4 c4 | B8) | ^c4 z2!f! A2 | c3 B c3 A | B8 | z8 | z4!p! B4 | %44
w: smart, and all|* my * weep\-|||ing: But|if my sight she|fly||Till,|
 c4 B2 A2 | ^G4 e4 | e4 e2 d2 | e8- | e8 | z8 | A4 =c4- | c4 B4 | c4 A4 | e8- | e4 d4 | d4 c4 | %56
w: heart broke, I|die, till,|heart broke, I|die,|||My griev\-|* ed|ghost, with|shrieks|* and|dread- ful|
 B4 B4 | c6 B2 | (A2 G2 A2 B2 | c4 B2 A2) | e8- | e8 | d8 | ^c4 z2!f! =c2 | e2 e2 e2 e2 | %65
w: cry- ing,|dread- ful|cry\- * * *||ing,||cry-|ing, Al-|ways a- bout her|
 (dcBc defd | edce dBcd) | e4!p! B4 | B6 B2 | B4 B4 | c8 | B8 | z8 | z4 z!f! GAB | c3 G B2 A2 | %75
w: fly\- * * * * * * *||ing, Shall|mur- mur|out com-|plain-|ing,||To be re-|veng'd of all her|
 ^G2 =G2 (GDEF) | G4 z E^F^G | A2 E2 =G2 ^F2 | ^G2 E2 E2 E2 | z4 z Bcd | e2 B2 c3 A | %81
w: deep dis- dain\- * * *|ing, to be re-|veng'd of all her|deep dis- dain- ing,|to be re-|veng'd of all her|
 ^G2 E2 (=G3 F) | E2 z2 z Bcd | e3 B d2 c2 | B2 B2 A4 | %85
w: deep dis- dain\- *|ing, to be re-|veng'd of all her|deep dis- dain-|
 ^G4 z[Q:1/4=107] G[Q:1/4=106]A[Q:1/4=105]B | %86
w: ing, to be re-|
[Q:1/4=104] c2[Q:1/4=102] ^G2[Q:1/4=100] B2[Q:1/4=99] A2 | %87
w: veng'd if all her|
[Q:1/4=97] ^G2[Q:1/4=95] A2[Q:1/4=93] B4 |[Q:1/4=92] ^c16 |] %89
w: deep dis- dain-|ing.|
V:2
!p! A2 | ^G4 z2 c2 | B4 z2 B2 | B2 B2 e3 B | d2 c2 B2 B2 | z2!f! ^G2 G2 G2 |[M:4/4] A3 c B2 A2 | %7
w: A-|las, a-|las! where|is my love, where|is my sweet- ing,|where is my|love, where is my|
 ^G2 G4 z2 | z2!p! B4 c2 | (dc)de d3 c | B4 z4 | z4 z2 A2 | ^G4 z2!f! c2 | c2 c4 B2 | c4 z2!p! e2 | %15
w: sweet- ing,|That hath|sto\- * len a- way my|heart,|my|heart? God|send us meet-|ing! God|
 d3 c B4 | ^c4 z2 =c2- | c2 G2 B4- | B2 F2 A2 D2 | E8 | z8 | e6 B2 | d6 A2 | c2 c2 B2 c2 | %24
w: send us meet-|ing! That,|* re- new\-|* ing my la-|ment,||that, re-|new- ing|my la- ment with|
 B2 A2 ^G2 G2 | z2 e2 d2 c2 | B2 B2 z2!f! c2 | B2 A2 ^G2 G2 | x6 x2 | z8 | z2!p! e4 dc | %31
w: friend- ly greet- ing,|with friend- ly|greet- ing, with|friend- ly greet- ing,|||She may re-|
 d2 B2 c2 d2 | e2 c2 B2 B2 | z4 c4- | c2 BA B2 G2 | A2 B2 c4- | c2 (GA) B4- | B2 A2 A4- | A4 ^G4 | %39
w: lease my smart, and|all my weep- ing,|she|* may re- lease my|smart, and all|* my * weep\-|* ing, my|* weep-|
 A4 z2!f! e2 | e3 e e2 d2 | e4!p! B4 | c4 B2 A2 | ^G8 | z8 | z4 B4 | c4 B2 A2 | ^G6 A2 | B4 e4 | %49
w: ing: But|if my sight she|fly Till,|heart broke, I|die,||till,|heart broke, I|die, I|die, My|
 e6 d2 | ^c4 A4 | e8- | e4 d4 | c4 B4 | A8 | ^G4 (A4- | A4 ^G4) | A8 | z4 A4- | A4 A4 | ^G8 | A8 | %62
w: griev- ed|ghost, with|shrieks|* and|dread- ful|cry-|ing, cry\-||ing,|shrieks|* and|dread-|ful|
 B8 | E4 z2!f! A2 | G2 A2 G2 c2 | (BAGA BcdB) | c4 A4 | ^G4!p! G4 | ^G6 G2 | ^G4 G4 | A8 | %71
w: cry-|ing, Al-|ways a- bout her|fly\- * * * * * * *|ing, fly-|ing, Shall|mur- mur|out com-|plain-|
 ^G4 z!f! =GAB | c2 G2 B2 A2 | ^G2 A2 B2 A2- | AE=GG E2 A,2 | z8 | z Bcd e3 B | c3 A B3 B | %78
w: ing, To be re-|veng'd of all her|deep dis- dain- ing,|* her deep dis- dain- ing,||to be re- veng'd of|all her deep dis-|
 B4 A2 z2 | z ABc d2 A2 | B2 G2 A2 A2 | B2 B2 z Bcd | e2 B2 d2 c2 | ccBG z DEF | G3 F ECFF | %85
w: dain- ing,|to be re- veng'd of|all her deep dis-|dain- ing, to be re-|veng'd of all her|deep dis- dain- ing, to be re-|veng'd of all her deep dis-|
 E2 E2 z Bcd | e2 B2 d2 c2 | BB (A4 ^G2) | A16 |] %89
w: dain- ing, to be re-|veng'd if all her|deep dis- dain\- *|ing.|
V:3
!p! E2 | E4 z2 A,2 | B,4 z2 E2 | E2 E2 E3 E | D3 A, E2 E2 | z2!f! B,2 B,3 E | %6
w: A-|las, a-|las! where|is my love, Where|is my sweet- ing,|where is my|
[M:4/4] C3 G, (B,G,) (CA,) | B,2 B,4 z2 |!p! E4 E4 | D2 D2 D2 D2 | E2 ^G,4 A,2 | %11
w: love, where is * my *|sweet- ing,|That hath|stol'n a- way my|heart, that hath|
 (B,A,)B,C B,2 A,2 | B,4 z4 | z4 z2!f! G2 | G4 z2!p! C2 | D2 D2 E4 | E8 | z8 | z4 z2 A2- | %19
w: sto\- * len a- way my|heart?|meet-|ing! God|send us meet-|ing!||That,|
 A2 E2 G4- | G2 D2 F2 F2 | E4 E2 D2 | D2 F2 F2 D2 | E6 C2 | D2 D2 E4 | E2 G2 F3 E | %26
w: * re- new\-|* ing my la-|ment, that, re-|new- ing my la-|ment with|friend- ly greet-|ing, with friend- ly|
 D2 D2 z2!f! E2 | F3 E E2 E2 | z2!p! E4 DC | D3 B, C2 D2 | E3 D C2 B,2 | z8 | z4 B,4- | %33
w: greet- ing, with|friend- ly greet- ing,|She may re-|lease my smart, and|all my weep- ing,||she|
 B,2 A,^G, A,3 B, | C2 D2 B,2 (CD) | E4 E,2 E2- | E2 DC B,2 A,2 | ^G,4 A,4 | B,2 C2 B,4 | %39
w: * may re- lease my|smart, and all my *|weep- ing, she|* may re- lease my|smart, and|all my weep-|
 A,4 z2!f! A2 | A2 A2 A2 A2 | ^G8 | z8 | z4!p! E4 | E4 D2 C2 | B,8 | z4 z2 A,2 | E4 D2 C2 | %48
w: ing: But|if my sight she|fly||Till,|heart broke, I|die,|till,|heart broke, I|
 (B,2 A,2) ^G,4 | A,4 E4 | E6 D2 | (C2 D2) E4 | A8- | A4 G4 | G4 F4 | E4 E4 | z8 | E4 F4- | %58
w: die, * I|die, My|griev- ed|ghost * with|shrieks|* and|dread- ful|cry- ing,||and dread|
 F2 E2 (E4- | E4 D4) | E4 E4 | E6 E2 | (^F4 E2 D2) | A4 z2!f! A,2 | C2 A,2 E2 C2 | G4 G,4 | %66
w: * ful cry\-||ing, and|dread- ful|cry\- * *|ing, Al-|ways a- bout her|fly- ing,|
 (CDEC F4) | E4!p! E4 | E6 E2 | E4 E4 | E8 | E8- | E8 | z8 | z4 z!f! B,CD | E2 B,2 D2 C2 | %76
w: fly\- * * * *|ing, Shall|mur- mur|out com-|plain-|ing,|||To be re-|veng'd of all her|
 B,3 B, E,2 B,2 | z8 | z4 z E^F^G | A2 E2 F2 (EF) | G3 F E2 E2 | z4 z G,A,B, | C2 G,2 B,2 A,2 | %83
w: deep dis- dain- ing,||to be re-|veng'd of all her *|deep dis- dain- ing,|to be re-|veng'd of all her|
 G,2 G,2 G,2 E,2 | z B,CD E2 (DC) | B,2 C2 B,2 A,2 | (^G,6 A,2 | B,2 C2 B,4) | A,16 |] %89
w: deep dis- dain- ing,|to be re- veng'd of *|all her deep dis-|dain\- *||ing.|
V:4
!p! A2 | E4 z2 e2 | e4 z4 | z8 | z8 | z2!f! e2 e2 e2 |[M:4/4][K:treble-8] e3 e e2 A2 | e2 e4 z2 | %8
w: A-|las, a-|las!|||where is my|love? Where is my|sweet- ing,|
 z8 | z8 | z2!p! e4 e2 | e3 f e3 d | e4 z2!f! c2 | c2 c2 d4 | c4 z4 | z4!p! B4 | A8 | e6 B2 | %18
w: ||That hath|stol'n a- way my|heart? God|send us meet-|ing!|meet-|ing!|That, re-|
 d6 A2 | c2 c2 B4 | z4 A4- | A2 E2 G4- | G2 D2 F2 F2 | E4 z4 | z8 | z2 E2 F2 F2 | G2 G2 z2!f! G2 | %27
w: new- ing|my la- ment,|that,|* re- new\-|* ing my la-|ment,||with friend- ly|greet- ing, with|
 (FG) A2 B2 B2 |!p! c2 BA B2 (AG) | A2 B2 A3 B | c2 B2 z4 | z2 e4 dc | B2 A2 ^G3 A | %33
w: friend\- * ly greet- ing,|She may re- lease my *|smart, and all my|weep- ing,|she may re-|lease my smart, and|
 B2 (cd) (c2 A2) | =G8 | z2 e4 dc | B3 A ^G2 A2 | B4 (c2 d2) | e8 | e4 z2!f! e2 | e3 e e2 A2 | %41
w: all my * weep\- *|ing,|she may re-|lease my smart, and|all my *|weep-|ing: But|if my sight she|
 e6!p! B2 | e4 d2 c2 | B8 | z8 | z8 | z4 z2 A2 | c4 B2 A2 | (^G2 A2) B4 | A8 | z8 | z8 | z8 | %53
w: fly Till,|heart broke, I|die,|||till,|heart broke, I|die, * I|die,||||
 z4 G4 | A4 d4 | B4 A4 | e8- | e4 d4 | c6 B2 | (A6 B2) | c2 c2 B4- | B2 A2 (A4- | A4 ^G4) | A8 | %64
w: My|griev- ed|ghost with|shrieks|* and|dread- ful|cry\- *|ing, and dread\-|* ful cry\-||ing,|
 z8 | z8 | z8 | z4!p! B4 | B6 B2 | B4 B4 | A8 | B4 z!f! Bcd | e3 B d2 c2 | B2 A2 e2 e2 | z4 z GAB | %75
w: |||Shall|mur- mur|out com-|plain-|ing, To be re-|veng'd of all her|deep dis- dain- ing,|to be re-|
 c2 G2 B2 A2 | G2 G2 (G3 D) | E4 z B^c^d | e3 B =c2 B2 | AA G2 A2 z2 | z Bcd e2 c2 | B2 B2 B3 A | %82
w: veng'd of all her|deep dis- dain\- *|ing, to be re-|veng'd of all her|deep dis- dain- ing,|to be re- veng'd of|all her deep dis-|
 ^G2 E2 z =GAB | c2 G2 B2 A2 | G2 (AB) c2 A2 | z4 e4 | e6 e2 | e8 | e16 |] %89
w: dain- ing, to be re-|veng'd of all her|deep dis\- * dain- ing,|her|deep dis-|dain-|ing.|

